; HEADER_BLOCK_START
; generated by OrcaSlicer 2.3.0 on 2025-10-02 at 15:47:28
; total layer number: 13
;_GP_TOTAL_LAYER_NUMBER_PLACEHOLDER
; filament_density: 1.24
; filament_diameter: 1.75
; max_z_height: 2.65
; HEADER_BLOCK_END

; THUMBNAIL_BLOCK_START

;
; THUMBNAIL_BLOCK_END

; THUMBNAIL_BLOCK_START

;
; THUMBNAIL_BLOCK_END

; external perimeters extrusion width = 0.40mm
; perimeters extrusion width = 0.45mm
; infill extrusion width = 0.45mm
; solid infill extrusion width = 0.50mm
; top infill extrusion width = 0.40mm
; first layer extrusion width = 0.50mm

; EXECUTABLE_BLOCK_START
M73 P0 R22
M201 X2000 Y2000 Z500 E5000
M203 X500 Y500 Z12 E120
M204 P1000 R1000 T1000
M205 X7.00 Y7.00 Z0.20 E3.00 ; sets the jerk limits, mm/sec
;TYPE:Custom
M83; extruder relative mode
G28; home all axes
M109 S220; hotend temperature
M140 S50; heatbed temperature
M190 S50; wait for the bed to heat up
M109 S220; wait for the extruder to heat up
G92 E0; reset extruder
G1 X20 Y5 Z0.3 F5000.0; move to start-line position
G1 Z0.3 F1000; print height
G1 X200 Y5 F1500.0 E15; draw 1st line
G1 X200 Y5.3 Z0.3 F5000.0; move to side a little
M73 P0 R21
G1 X5.3  Y5.3 Z0.3 F1500.0 E30; draw 2nd line
G1 Z3 F3000; move z up little to prevent scratching of surface
M73 P1 R21
G90
G21
M83 ; use relative distances for extrusion
; filament start gcode
M106 S0
;LAYER_CHANGE
;Z:0.25
;HEIGHT:0.25
;BEFORE_LAYER_CHANGE
;0.25
G92 E0

G1 E-1 F1500
;_SET_FAN_SPEED_CHANGING_LAYER
G1 Z.45 F4800
G1 X82.424 Y98.031
G1 Z.45
G1 Z.25
G1 E.95 F1500
;TYPE:Skirt
;WIDTH:0.5
G1 F2150.781
G1 X141.927 Y98.031 E2.65008
G1 X143.759 Y98.626 E.08577
G1 X145.259 Y99.716 E.08257
G1 X146.39 Y101.274 E.08576
G1 X146.963 Y103.037 E.08258
G1 X147.116 Y104 E.04342
G1 X147.116 Y116 E.53444
G1 X146.963 Y116.963 E.04342
G1 X146.39 Y118.726 E.08258
G1 X145.259 Y120.284 E.08576
G1 X143.759 Y121.374 E.08257
G1 X141.927 Y121.969 E.08577
G1 X78.073 Y121.969 E2.84387
G1 X76.241 Y121.374 E.08576
G1 X74.741 Y120.284 E.08258
G1 X73.61 Y118.726 E.08577
G1 X73.037 Y116.963 E.08258
G1 X72.884 Y116 E.04342
G1 X72.884 Y104 E.53444
G1 X73.037 Y103.037 E.04342
G1 X73.61 Y101.274 E.08258
G1 X74.741 Y99.716 E.08577
G1 X76.241 Y98.626 E.08258
G1 X78.073 Y98.031 E.08577
G1 X82.384 Y98.031 E.19201
G1 X82.384 Y98.477 F4800
G1 F2150.781
G1 X141.927 Y98.477 E2.65186
G1 X143.496 Y98.987 E.07348
G1 X144.996 Y100.077 E.08257
G1 X145.966 Y101.412 E.07347
G1 X146.539 Y103.175 E.08258
G1 X146.67 Y104 E.0372
G1 X146.67 Y116 E.53444
G1 X146.539 Y116.825 E.0372
G1 X145.966 Y118.588 E.08258
G1 X144.996 Y119.923 E.07347
G1 X143.496 Y121.013 E.08257
G1 X141.927 Y121.523 E.07348
G1 X78.073 Y121.523 E2.84387
G1 X76.504 Y121.013 E.07348
M73 P2 R21
G1 X75.004 Y119.923 E.08258
G1 X74.034 Y118.588 E.07348
G1 X73.461 Y116.825 E.08258
G1 X73.33 Y116 E.0372
G1 X73.33 Y104 E.53444
G1 X73.461 Y103.175 E.0372
G1 X74.034 Y101.412 E.08258
G1 X75.004 Y100.077 E.07348
G1 X76.504 Y98.987 E.08258
G1 X78.073 Y98.477 E.07348
G1 X82.344 Y98.477 E.19023
G1 X82.344 Y98.924 F4800
G1 F2150.781
G1 X141.927 Y98.924 E2.65364
G1 X143.234 Y99.348 E.0612
G1 X144.734 Y100.438 E.08257
G1 X145.541 Y101.55 E.06119
G1 X146.114 Y103.313 E.08258
G1 X146.223 Y104 E.03098
G1 X146.223 Y116 E.53444
G1 X146.114 Y116.687 E.03098
G1 X145.541 Y118.45 E.08258
G1 X144.734 Y119.562 E.06119
G1 X143.234 Y120.652 E.08257
G1 X141.927 Y121.076 E.0612
G1 X78.073 Y121.076 E2.84387
G1 X76.766 Y120.652 E.06119
G1 X75.266 Y119.562 E.08258
G1 X74.459 Y118.45 E.06119
G1 X73.886 Y116.687 E.08258
G1 X73.777 Y116 E.03098
G1 X73.777 Y104 E.53444
G1 X73.886 Y103.313 E.03098
G1 X74.459 Y101.55 E.08258
G1 X75.266 Y100.438 E.06119
G1 X76.766 Y99.348 E.08258
G1 X78.073 Y98.924 E.06119
G1 X82.304 Y98.924 E.18845
; printing object keychain_sara.stl id:2625 copy 0
G1 E-.79077 F1500
;WIPE_START
G1 F2150.781
G1 X82.604 Y98.924 E-.20923
;WIPE_END
G1 Z.45 F4800
G1 X141.411 Y102.736 Z.45
G1 Z.25
G1 E.95 F1500
;TYPE:Inner wall
;WIDTH:0.499999
G1 F900
G1 X142.075 Y103.219 E.03658
G1 X142.411 Y104.252 E.04837
G1 X142.411 Y115.748 E.51202
G1 X142.075 Y116.781 E.04838
G1 X141.411 Y117.264 E.03658
G1 X78.589 Y117.264 E2.79787
G1 X77.925 Y116.781 E.03659
G1 X77.589 Y115.748 E.04837
G1 X77.589 Y104.252 E.51202
G1 X77.925 Y103.219 E.04837
M73 P3 R21
G1 X78.589 Y102.736 E.03659
G1 X141.371 Y102.736 E2.79609
G1 X141.556 Y102.29 F4800
G1 F900
G1 X142.455 Y102.943 E.0495
G1 X142.857 Y104.181 E.05798
G1 X142.857 Y115.819 E.51832
G1 X142.455 Y117.057 E.05798
G1 X141.556 Y117.71 E.0495
G1 X78.444 Y117.71 E2.81079
G1 X77.545 Y117.057 E.0495
G1 X77.143 Y115.819 E.05798
G1 X77.143 Y104.181 E.51832
G1 X77.545 Y102.943 E.05798
G1 X78.444 Y102.29 E.0495
G1 X141.516 Y102.29 E2.80901
G1 X141.701 Y101.843 F4800
M73 P4 R21
G1 F900
G1 X142.835 Y102.667 E.06242
G1 X143.304 Y104.11 E.06759
G1 X143.304 Y115.89 E.52462
G1 X142.835 Y117.333 E.06759
G1 X141.701 Y118.157 E.06242
G1 X78.299 Y118.157 E2.82371
G1 X77.165 Y117.333 E.06242
G1 X76.696 Y115.89 E.06759
G1 X76.696 Y104.11 E.52462
G1 X77.165 Y102.667 E.06759
M73 P4 R20
G1 X78.299 Y101.843 E.06242
G1 X141.661 Y101.843 E2.82193
G1 X141.846 Y101.397 F4800
M73 P5 R20
;TYPE:Outer wall
G1 F900
G1 X143.214 Y102.391 E.07534
G1 X143.75 Y104.04 E.0772
G1 X143.75 Y115.96 E.53092
G1 X143.214 Y117.609 E.0772
G1 X141.846 Y118.603 E.07534
G1 X78.154 Y118.603 E2.83663
G1 X76.786 Y117.609 E.07534
G1 X76.25 Y115.96 E.0772
G1 X76.25 Y104.04 E.53092
G1 X76.786 Y102.391 E.07719
G1 X78.154 Y101.397 E.07534
G1 X141.806 Y101.397 E2.83485
G1 E-.5 F1500
;WIPE_START
G1 F900
G1 X142.051 Y101.57 E-.5
;WIPE_END
G1 Z.45 F4800
G1 X86.119 Y111.141 Z.45
G1 Z.25
G1 E.95 F1500
;TYPE:Inner wall
G1 F900
G1 X85.991 Y111.476 E.016
G1 X85.791 Y111.814 E.01745
G1 X85.451 Y112.253 E.02476
G1 X85.095 Y112.587 E.02175
G1 X84.635 Y112.9 E.02476
G1 X83.971 Y113.191 E.03228
G1 X83.356 Y113.316 E.02796
G1 X82.728 Y113.324 E.02796
G1 X82.11 Y113.215 E.02796
G1 X81.524 Y112.991 E.02796
G1 X80.989 Y112.661 E.02796
G1 X80.526 Y112.237 E.02796
G1 X80.286 Y111.928 E.01745
G1 X80.003 Y111.449 E.02476
G1 X79.823 Y110.995 E.02175
G1 X79.702 Y110.453 E.02476
G1 X79.665 Y110.062 E.01745
G1 X79.676 Y109.728 E.0149
G1 X79.785 Y109.11 E.02796
G1 X79.918 Y108.741 E.01745
G1 X80.171 Y108.246 E.02476
G1 X80.458 Y107.851 E.02175
G1 X80.851 Y107.458 E.02476
G1 X81.448 Y107.047 E.03228
G1 X82.029 Y106.809 E.02796
G1 X82.644 Y106.684 E.02796
G1 X83.272 Y106.676 E.02796
G1 X83.659 Y106.737 E.01745
G1 X84.193 Y106.892 E.02476
G1 X84.634 Y107.1 E.02175
G1 X85.094 Y107.412 E.02476
G1 X85.609 Y107.922 E.03228
G1 X85.952 Y108.448 E.02796
M73 P6 R20
G1 X86.191 Y109.029 E.02796
G1 X86.316 Y109.644 E.02796
G1 X86.324 Y110.272 E.02796
G1 X86.215 Y110.89 E.02796
G1 X86.133 Y111.104 E.01018
G1 X85.702 Y110.989 F4800
G1 F900
G1 X85.581 Y111.299 E.01481
G1 X85.439 Y111.54 E.01247
G1 X85.098 Y111.979 E.02476
G1 X84.844 Y112.218 E.01554
G1 X84.384 Y112.531 E.02476
G1 X83.82 Y112.771 E.02731
G1 X83.286 Y112.876 E.02422
G1 X82.742 Y112.878 E.02422
G1 X82.207 Y112.779 E.02422
G1 X81.701 Y112.581 E.02422
G1 X81.24 Y112.292 E.02422
G1 X80.842 Y111.922 E.02423
G1 X80.387 Y111.222 E.03716
G1 X80.259 Y110.898 E.01554
G1 X80.138 Y110.355 E.02476
G1 X80.122 Y109.742 E.02731
G1 X80.221 Y109.207 E.02422
G1 X80.568 Y108.449 E.03716
G1 X80.773 Y108.167 E.01554
G1 X81.166 Y107.773 E.02476
G1 X81.675 Y107.432 E.0273
G1 X82.18 Y107.229 E.02422
G1 X82.714 Y107.124 E.02422
G1 X83.258 Y107.122 E.02422
G1 X84.068 Y107.321 E.03716
G1 X84.384 Y107.469 E.01554
G1 X84.843 Y107.782 E.02476
G1 X85.275 Y108.218 E.02731
G1 X85.568 Y108.675 E.02422
G1 X85.771 Y109.18 E.02422
G1 X85.876 Y109.714 E.02422
G1 X85.878 Y110.258 E.02423
G1 X85.779 Y110.793 E.02422
G1 X85.717 Y110.952 E.00763
G1 X85.281 Y110.864 F4800
G1 F900
G1 X85.086 Y111.267 E.01992
G1 X84.745 Y111.706 E.02476
G1 X84.593 Y111.849 E.00932
G1 X84.133 Y112.162 E.02476
G1 X83.669 Y112.351 E.02233
G1 X83.112 Y112.443 E.02515
G1 X82.631 Y112.416 E.02143
G1 X82.185 Y112.304 E.02049
G1 X81.768 Y112.111 E.02049
G1 X81.394 Y111.843 E.02049
G1 X81.054 Y111.473 E.02234
G1 X80.772 Y110.995 E.02476
G1 X80.573 Y110.258 E.034
G1 X80.568 Y109.756 E.02233
G1 X80.714 Y109.147 E.0279
G1 X80.966 Y108.652 E.02476
G1 X81.482 Y108.089 E.034
G1 X81.903 Y107.816 E.02233
G1 X82.442 Y107.619 E.02558
G1 X82.909 Y107.557 E.02098
G1 X83.41 Y107.594 E.02233
G1 X83.943 Y107.749 E.02476
G1 X84.593 Y108.151 E.034
G1 X84.94 Y108.513 E.02234
G1 X85.238 Y109.017 E.02607
G1 X85.382 Y109.453 E.02049
G1 X85.443 Y109.909 E.02049
G1 X85.416 Y110.369 E.02049
G1 X85.304 Y110.815 E.02049
G1 X85.298 Y110.828 E.00063
G1 X84.88 Y110.67 F4800
;TYPE:Outer wall
G1 F900
G1 X84.733 Y110.993 E.01581
G1 X84.393 Y111.432 E.02476
G1 X83.882 Y111.792 E.02783
G1 X83.477 Y111.942 E.01923
G1 X83.105 Y111.996 E.01676
G1 X82.729 Y111.981 E.01676
G1 X82.362 Y111.895 E.01676
G1 X82.019 Y111.742 E.01676
G1 X81.71 Y111.527 E.01676
G1 X81.439 Y111.246 E.01737
G1 X81.156 Y110.768 E.02476
G1 X81.009 Y110.16 E.02783
G1 X81.014 Y109.77 E.01737
G1 X81.111 Y109.35 E.01923
G1 X81.364 Y108.854 E.02476
G1 X81.798 Y108.405 E.02783
G1 X82.168 Y108.182 E.01923
G1 X82.523 Y108.058 E.01676
G1 X82.895 Y108.003 E.01676
G1 X83.285 Y108.023 E.01737
G1 X83.819 Y108.178 E.02476
G1 X84.342 Y108.52 E.02783
G1 X84.63 Y108.842 E.01923
G1 X84.818 Y109.168 E.01676
G1 X84.942 Y109.523 E.01676
G1 X84.997 Y109.895 E.01676
G1 X84.981 Y110.271 E.01676
G1 X84.896 Y110.633 E.01654
G1 E-.5 F1500
;WIPE_START
G1 F900
G1 X84.773 Y110.906 E-.5
;WIPE_END
G1 Z.45 F4800
G1 X85.154 Y111.101 Z.45
G1 X142.277 Y104.536
G1 Z.25
G1 E.95 F1500
;TYPE:Bottom surface
;WIDTH:0.502172
G1 F2100
G1 X140.812 Y103.071 E.09274
G1 X140.177 Y103.071 E.02839
G1 X142.076 Y104.969 E.12017
G1 X142.076 Y105.604 E.02839
G1 X139.543 Y103.071 E.16032
G1 X138.909 Y103.071 E.02839
G1 X142.076 Y106.238 E.20046
G1 X142.076 Y106.872 E.02839
G1 X138.275 Y103.071 E.24061
G1 X137.64 Y103.071 E.02839
G1 X142.076 Y107.507 E.28076
G1 X142.076 Y108.141 E.02839
G1 X137.006 Y103.071 E.3209
G1 X136.372 Y103.071 E.02839
G1 X142.076 Y108.775 E.36105
G1 X142.076 Y109.409 E.02839
G1 X135.737 Y103.071 E.40119
G1 X135.103 Y103.071 E.02839
G1 X142.076 Y110.044 E.44134
G1 X142.076 Y110.678 E.02839
G1 X134.469 Y103.071 E.48149
G1 X133.834 Y103.071 E.02839
G1 X142.076 Y111.312 E.52163
G1 X142.076 Y111.947 E.02839
G1 X133.2 Y103.071 E.56178
G1 X132.566 Y103.071 E.02839
G1 X142.076 Y112.581 E.60192
G1 X142.076 Y113.215 E.02839
G1 X131.932 Y103.071 E.64207
G1 X131.297 Y103.071 E.02839
G1 X142.076 Y113.85 E.68222
G1 X142.076 Y114.484 E.02839
G1 X130.663 Y103.071 E.72236
G1 X130.029 Y103.071 E.02839
G1 X142.076 Y115.118 E.76251
G1 X142.076 Y115.695 E.02582
G1 X142.062 Y115.738 E.00203
G1 X129.394 Y103.071 E.80177
G1 X128.76 Y103.071 E.02839
G1 X141.907 Y116.217 E.83207
G1 X141.791 Y116.574 E.01681
G1 X141.697 Y116.642 E.00516
G1 X128.126 Y103.071 E.85896
G1 X127.491 Y103.071 E.02839
G1 X141.33 Y116.909 E.87586
G1 X141.302 Y116.929 E.00154
G1 X140.716 Y116.929 E.02623
G1 X126.857 Y103.071 E.87714
G1 X126.223 Y103.071 E.02839
M73 P7 R20
G1 X140.082 Y116.929 E.87714
G1 X139.447 Y116.929 E.02839
G1 X125.588 Y103.071 E.87714
G1 X124.954 Y103.071 E.02839
G1 X138.813 Y116.929 E.87714
G1 X138.179 Y116.929 E.02839
G1 X124.32 Y103.071 E.87714
G1 X123.686 Y103.071 E.02839
G1 X137.544 Y116.929 E.87714
G1 X136.91 Y116.929 E.02839
G1 X123.051 Y103.071 E.87714
G1 X122.417 Y103.071 E.02839
G1 X136.276 Y116.929 E.87714
G1 X135.641 Y116.929 E.02839
G1 X121.783 Y103.071 E.87714
G1 X121.148 Y103.071 E.02839
G1 X135.007 Y116.929 E.87714
G1 X134.373 Y116.929 E.02839
G1 X120.514 Y103.071 E.87714
G1 X119.88 Y103.071 E.02839
G1 X133.738 Y116.929 E.87714
G1 X133.104 Y116.929 E.02839
G1 X119.245 Y103.071 E.87714
G1 X118.611 Y103.071 E.02839
G1 X132.47 Y116.929 E.87714
G1 X131.836 Y116.929 E.02839
G1 X117.977 Y103.071 E.87714
G1 X117.342 Y103.071 E.02839
G1 X131.201 Y116.929 E.87714
G1 X130.567 Y116.929 E.02839
G1 X116.708 Y103.071 E.87714
G1 X116.074 Y103.071 E.02839
G1 X129.933 Y116.929 E.87714
G1 X129.298 Y116.929 E.02839
G1 X115.44 Y103.071 E.87714
G1 X114.805 Y103.071 E.02839
G1 X128.664 Y116.929 E.87714
G1 X128.03 Y116.929 E.02839
G1 X114.171 Y103.071 E.87714
G1 X113.537 Y103.071 E.02839
G1 X127.395 Y116.929 E.87714
G1 X126.761 Y116.929 E.02839
G1 X112.902 Y103.071 E.87714
G1 X112.268 Y103.071 E.02839
M73 P8 R20
G1 X126.127 Y116.929 E.87714
G1 X125.492 Y116.929 E.02839
G1 X111.634 Y103.071 E.87714
G1 X110.999 Y103.071 E.02839
G1 X124.858 Y116.929 E.87714
G1 X124.224 Y116.929 E.02839
G1 X110.365 Y103.071 E.87714
G1 X109.731 Y103.071 E.02839
G1 X123.59 Y116.929 E.87714
G1 X122.955 Y116.929 E.02839
G1 X109.096 Y103.071 E.87714
G1 X108.462 Y103.071 E.02839
G1 X122.321 Y116.929 E.87714
G1 X121.687 Y116.929 E.02839
G1 X107.828 Y103.071 E.87714
G1 X107.194 Y103.071 E.02839
G1 X121.052 Y116.929 E.87714
G1 X120.418 Y116.929 E.02839
G1 X106.559 Y103.071 E.87714
G1 X105.925 Y103.071 E.02839
G1 X119.784 Y116.929 E.87714
G1 X119.149 Y116.929 E.02839
G1 X105.291 Y103.071 E.87714
G1 X104.656 Y103.071 E.02839
G1 X118.515 Y116.929 E.87714
G1 X117.881 Y116.929 E.02839
G1 X104.022 Y103.071 E.87714
G1 X103.388 Y103.071 E.02839
G1 X117.247 Y116.929 E.87714
G1 X116.612 Y116.929 E.02839
G1 X102.753 Y103.071 E.87714
G1 X102.119 Y103.071 E.02839
G1 X115.978 Y116.929 E.87714
G1 X115.344 Y116.929 E.02839
G1 X101.485 Y103.071 E.87714
G1 X100.851 Y103.071 E.02839
G1 X114.709 Y116.929 E.87714
G1 X114.075 Y116.929 E.02839
G1 X100.216 Y103.071 E.87714
G1 X99.582 Y103.071 E.02839
G1 X113.441 Y116.929 E.87714
G1 X112.806 Y116.929 E.02839
M73 P9 R20
G1 X98.948 Y103.071 E.87714
G1 X98.313 Y103.071 E.02839
G1 X112.172 Y116.929 E.87714
G1 X111.538 Y116.929 E.02839
G1 X97.679 Y103.071 E.87714
G1 X97.045 Y103.071 E.02839
G1 X110.903 Y116.929 E.87714
G1 X110.269 Y116.929 E.02839
G1 X96.41 Y103.071 E.87714
G1 X95.776 Y103.071 E.02839
M73 P9 R19
G1 X109.635 Y116.929 E.87714
G1 X109.001 Y116.929 E.02839
G1 X95.142 Y103.071 E.87714
G1 X94.507 Y103.071 E.02839
G1 X108.366 Y116.929 E.87714
G1 X107.732 Y116.929 E.02839
G1 X93.873 Y103.071 E.87714
G1 X93.239 Y103.071 E.02839
G1 X107.098 Y116.929 E.87714
G1 X106.463 Y116.929 E.02839
G1 X92.605 Y103.071 E.87714
G1 X91.97 Y103.071 E.02839
G1 X105.829 Y116.929 E.87714
G1 X105.195 Y116.929 E.02839
G1 X91.336 Y103.071 E.87714
G1 X90.702 Y103.071 E.02839
G1 X104.56 Y116.929 E.87714
G1 X103.926 Y116.929 E.02839
G1 X90.067 Y103.071 E.87714
G1 X89.433 Y103.071 E.02839
G1 X103.292 Y116.929 E.87714
G1 X102.657 Y116.929 E.02839
G1 X88.799 Y103.071 E.87714
G1 X88.164 Y103.071 E.02839
G1 X102.023 Y116.929 E.87714
G1 X101.389 Y116.929 E.02839
G1 X87.53 Y103.071 E.87714
G1 X86.896 Y103.071 E.02839
G1 X100.755 Y116.929 E.87714
G1 X100.12 Y116.929 E.02839
G1 X86.261 Y103.071 E.87714
G1 X85.627 Y103.071 E.02839
G1 X99.486 Y116.929 E.87714
G1 X98.852 Y116.929 E.02839
M73 P10 R19
G1 X84.993 Y103.071 E.87714
G1 X84.359 Y103.071 E.02839
G1 X98.217 Y116.929 E.87714
G1 X97.583 Y116.929 E.02839
G1 X83.724 Y103.071 E.87714
G1 X83.09 Y103.071 E.02839
G1 X96.949 Y116.929 E.87714
G1 X96.314 Y116.929 E.02839
G1 X82.456 Y103.071 E.87714
G1 X81.821 Y103.071 E.02839
G1 X95.68 Y116.929 E.87714
G1 X95.046 Y116.929 E.02839
G1 X81.187 Y103.071 E.87714
G1 X80.553 Y103.071 E.02839
G1 X83.957 Y106.475 E.21547
G1 X83.745 Y106.413 E.00987
G1 X83.186 Y106.338 E.02526
G1 X79.918 Y103.071 E.20681
G1 X79.284 Y103.071 E.02839
G1 X82.57 Y106.356 E.20796
G1 X82.226 Y106.411 E.01556
G1 X82.04 Y106.461 E.00864
G1 X78.67 Y103.091 E.21327
G1 X78.303 Y103.358 E.02032
G1 X81.567 Y106.623 E.20663
G1 X81.147 Y106.837 E.02111
G1 X78.093 Y103.783 E.19328
G1 X77.938 Y104.262 E.02253
G1 X80.773 Y107.097 E.17944
G1 X80.619 Y107.216 E.00872
G1 X80.439 Y107.397 E.01142
G1 X77.924 Y104.882 E.15917
G1 X77.924 Y105.516 E.02839
G1 X80.136 Y107.729 E.14003
G1 X79.871 Y108.097 E.02034
G1 X77.924 Y106.15 E.12322
G1 X77.924 Y106.785 E.02839
G1 X79.657 Y108.518 E.10967
G1 X79.48 Y108.975 E.02196
G1 X77.924 Y107.419 E.0985
G1 X77.924 Y108.053 E.02839
G1 X79.368 Y109.498 E.09142
G1 X79.341 Y109.713 E.00968
G1 X79.33 Y110.094 E.01707
G1 X77.924 Y108.688 E.089
